img/why-us/button-1.svg

<svg width="48" height="48" viewBox="0 0 48 48" fill="none" xmlns="http://www.w3.org/2000/svg">
<rect width="48" height="48" rx="12" fill="#F2F2F7"/>
<path d="M28 34.75H20C15.38 34.75 14.52 32.6 14.3 30.51L13.55 22.5C13.44 21.45 13.41 19.9 14.45 18.74C15.35 17.74 16.84 17.26 19 17.26H29C31.17 17.26 32.66 17.75 33.55 18.74C34.59 19.9 34.56 21.45 34.45 22.51L33.7 30.5C33.48 32.6 32.62 34.75 28 34.75ZM19 18.75C17.31 18.75 16.15 19.08 15.56 19.74C15.07 20.28 14.91 21.11 15.04 22.35L15.79 30.36C15.96 31.94 16.39 33.25 20 33.25H28C31.6 33.25 32.04 31.94 32.21 30.35L32.96 22.36C33.09 21.11 32.93 20.28 32.44 19.74C31.85 19.08 30.69 18.75 29 18.75H19Z" fill="#0F172A"/>
<path d="M20.2471 15.207C20.258 15.1825 20.2703 15.1587 20.2822 15.1348C20.27 15.1588 20.2582 15.1828 20.2471 15.207ZM27.7178 15.1348C27.7296 15.1586 27.7411 15.1826 27.752 15.207C27.7409 15.1829 27.73 15.1586 27.7178 15.1348ZM20.4668 14.8447C20.4039 14.9248 20.3499 15.0077 20.3037 15.0928C20.3258 15.0512 20.3486 15.0102 20.374 14.9707C20.4213 14.8972 20.4793 14.8234 20.5488 14.75C20.521 14.7806 20.4928 14.8116 20.4668 14.8447ZM27.4512 14.75C27.5207 14.8234 27.5787 14.8972 27.626 14.9707C27.6513 15.0101 27.6733 15.0514 27.6953 15.0928C27.6492 15.0079 27.596 14.9247 27.5332 14.8447C27.5072 14.8116 27.479 14.7806 27.4512 14.75ZM24.7998 14C24.9205 14 25.0365 14.0017 25.1475 14.0059C25.0352 14.0027 24.9192 14 24.7998 14Z" fill="#0F172A" stroke="#0F172A" stroke-width="1.5"/>
<path d="M24 28.75C21.25 28.75 21.25 27.05 21.25 26.03V25C21.25 23.59 21.59 23.25 23 23.25H25C26.41 23.25 26.75 23.59 26.75 25V26C26.75 27.04 26.75 28.75 24 28.75ZM22.75 24.75C22.75 24.83 22.75 24.92 22.75 25V26.03C22.75 27.06 22.75 27.25 24 27.25C25.25 27.25 25.25 27.09 25.25 26.02V25C25.25 24.92 25.25 24.83 25.25 24.75C25.17 24.75 25.08 24.75 25 24.75H23C22.92 24.75 22.83 24.75 22.75 24.75Z" fill="#0F172A"/>
<path d="M26 26.77C25.63 26.77 25.3 26.49 25.26 26.11C25.21 25.7 25.5 25.32 25.91 25.27C28.55 24.94 31.08 23.94 33.21 22.39C33.54 22.14 34.01 22.22 34.26 22.56C34.5 22.89 34.43 23.36 34.09 23.61C31.75 25.31 28.99 26.4 26.09 26.77C26.06 26.77 26.03 26.77 26 26.77Z" fill="#0F172A"/>
<path d="M22 26.7799C21.97 26.7799 21.94 26.7799 21.91 26.7799C19.17 26.4699 16.5 25.4699 14.19 23.8899C13.85 23.6599 13.76 23.1899 13.99 22.8499C14.22 22.5099 14.69 22.4199 15.03 22.6499C17.14 24.0899 19.57 24.9999 22.07 25.2899C22.48 25.3399 22.78 25.7099 22.73 26.1199C22.7 26.4999 22.38 26.7799 22 26.7799Z" fill="#0F172A"/>
</svg>

<svg xmlns="http://www.w3.org/2000/svg" width="48" height="48" fill="none"><rect width="48" height="48" fill="#F2F2F7" rx="12"/><path fill="#0F172A" d="M28 34.75h-8c-4.62 0-5.48-2.15-5.7-4.24l-.75-8.01c-.11-1.05-.14-2.6.9-3.76.9-1 2.39-1.48 4.55-1.48h10c2.17 0 3.66.49 4.55 1.48 1.04 1.16 1.01 2.71.9 3.77l-.75 7.99c-.22 2.1-1.08 4.25-5.7 4.25Zm-9-16c-1.69 0-2.85.33-3.44.99-.49.54-.65 1.37-.52 2.61l.75 8.01c.17 1.58.6 2.89 4.21 2.89h8c3.6 0 4.04-1.31 4.21-2.9l.75-7.99c.13-1.25-.03-2.08-.52-2.62-.59-.66-1.75-.99-3.44-.99H19Z"/><path fill="#0F172A" stroke="#0F172A" stroke-width="1.5" d="M20.247 15.207c.011-.025.023-.048.035-.072a1.995 1.995 0 0 0-.035.072Zm7.47-.072c.013.024.024.048.035.072l-.034-.072Zm-7.25-.29a1.762 1.762 0 0 0 .082-.095c-.028.03-.056.062-.082.095Zm6.984-.095a1.514 1.514 0 0 1 .244.343 1.76 1.76 0 0 0-.162-.248c-.026-.033-.054-.064-.082-.095ZM24.8 14Z"/><path fill="#0F172A" d="M24 28.75c-2.75 0-2.75-1.7-2.75-2.72V25c0-1.41.34-1.75 1.75-1.75h2c1.41 0 1.75.34 1.75 1.75v1c0 1.04 0 2.75-2.75 2.75Zm-1.25-4v1.28c0 1.03 0 1.22 1.25 1.22s1.25-.16 1.25-1.23v-1.27h-2.5Z"/><path fill="#0F172A" d="M26 26.77c-.37 0-.7-.28-.74-.66-.05-.41.24-.79.65-.84 2.64-.33 5.17-1.33 7.3-2.88.33-.25.8-.17 1.05.17.24.33.17.8-.17 1.05-2.34 1.7-5.1 2.79-8 3.16H26ZM22 26.78h-.09c-2.74-.31-5.41-1.31-7.72-2.89a.753.753 0 0 1-.2-1.04c.23-.34.7-.43 1.04-.2 2.11 1.44 4.54 2.35 7.04 2.64.41.05.71.42.66.83-.03.38-.35.66-.73.66Z"/></svg>
